X:274
T:God Will Take Care of You
%%stretchlast false
M:6/8
L:1/4
K:Ab clef=C1
"^I"[A,,E,A,C]/ "^♯iii"[A,,E,B,D]/ "^i"[A,,E,=B,=D]/ "^I"[A,,A,CE]/ [A,,E,CA]/ "^V7"[E,G,DB]/ | "^I"[A,Ec] "^V7"[E,G,DB]/ "^I"[A,,E,CA]3/2 | "^♯iii°"[E,G,DE]/ "^V7"[E,B,DG]/ "^♯iii"[E,A,DF]/ "^V7"[E,G,B,D] "^♯iii°"[E,G,DF]/ | "^I"[A,,A,CE]3/2 [A,,E,A,C]3/2 | [A,,E,A,C]/ "^♯iii"[A,,E,B,D]/ "^i"[A,,E,=B,=D]/ "^I"[A,,A,CE]/ [A,,E,CA]/ "^V7"[E,G,DB]/ | "^I"[A,Ec] "^V7"[E,G,DB]/ "^I"[A,,E,CA]3/2 | "^♯iii°"[E,G,DE]/ "^V7"[E,B,DG]/ "^♯iii"[E,A,DF]/ "^♯iii°"[E,G,DE] "^V7"[E,G,DB]/ | "^iii+"[A,,A,CA]3 | "^IV"[D,A,FA]3/2 "^♯iii"[D,A,EG] "^IV"[D,A,DF]/ | "^IV²"[A,,A,DF] "^I"[A,,A,CE]/ [A,,A,CE]3/2 | "^iii¹"[E,CE]/ "^V"[E,EG]/ "^vi+"[E,DF]/ "^V7"[E,G,B,D]3/2 | [E,G,B,D]/ "^♯iii°"[E,G,DF]/ "^iii¹"[E,CE]/ "^I"[A,,E,A,C]3/2 | [A,,A,CE]3/2 "^I¹"[C,A,EA] [C,A,EA]/ | "^ii¹"[D,F,FB]/ "^IV"[D,F,FA]/ "^ii¹"[D,F,FB]/ "^III"[C,G,=Ec]3/2 | "^ii¹"[D,F,FB]/ "^IV"[D,A,FA]/ [D,A,DF]/ "^iii¹"[E,CE]/ "^I²"[E,CA]/ "^V"[E,B,G]/ | "^I"[A,,E,CA]/ "^iii+"[A,,C,A,A]/ "^IV²"[A,,F,DA]/ "^I"[A,,E,CA]3/2 |]
